!!!COM: Music21
!!!OTL: Untitled
!!!OMV: Untitled
**kern
*clefG2
*k[f#]
*G:
*M2/4
[8G'L 8d 8b
8G'J] 8d#X 8b
=1
[8.CL 8.e 8.a
32CLL_ 32b
32CJJJ_ 32cc
8CL] 8e
8DJ 8c 8f#
=2
[8GGL 8B 8g
16GGL_ 16d
16GGJJ]
[8DL 8f# 8a
16DL_ 16d
16DJJ]
=3
[8GL 8g 8b
16GL_ 16d
16GJJ]
8F#'L 8d 8a 8cc 8dd
8G'J 8d 8g 8b
=4
4D 4d 4f# 4a
[8G'L 8d 8b
8G'J] 8d#X 8b
=5
[8.CL 8.e 8.a
32CLL_ 32b
32CJJJ_ 32cc
8CL] 8e
8DJ 8c 8f#
=6
[8GGL 8B 8g
16GGL_ 16d
16GGJJ]
[8DL 8f# 8a
16DL_ 16d
16DJJ]
=7
[8GL 8g 8b
16GL_ 16d
16GJJ]
8A'L 8d 8f#
8AA'J 8G 8c#X 8e
!!linebreak:original
=8
4D 4F# 4d
[8B'L [8d 8dd
8B'J] 8d] 8dd
=9
[8AL [8d 8dd
16AL_ 16d_ 16cc
16AJJ] 16d]
[16.GLL [16.d 16.b 16.cc
32GJk_ 32d_ 32a
16.GL_ 16.d_ 16.b
32GJJk] 32d] 32cc
=10
[8DL [8d 8b
8DJ] 8d] 8a
[8c'L [8d 8ee
8c'J] 8d] 8ee
=11
[8BL [8d 8ee
16BL_ 16d_ 16dd
16BJJ] 16d]
[16.F#LL [16.d 16.cc 16.dd
32F#Jk_ 32d_ 32b
16.F#L_ 16.d_ 16.cc
32F#JJk] 32d] 32dd
=12
[8GL [8d 8cc
16GL_ 16d_ 16b
16GJJ] 16d]
[8G'L 8d 8b
8G'J] 8d#X 8b
=13
[8.CL 8.e 8.a
32CLL_ 32b
32CJJJ_ 32cc
8CL] 8e
8DJ 8c 8f#
=14
[8GGL 8B 8g
16GGL_ 16d
16GGJJ]
[8DL 8f# 8a
16DL_ 16d
16DJJ]
!!linebreak:original
=15
[8GL 8g 8b
16GL_ 16d
16GJJ]
8C'L 8e 8cc
8D'J 8f# 8a
=
4GG 4B 4g
=16||
!LO:TX:a:B:t=VAR I
[16gLL
16gJ_ 16dd
16gL_ 16gg
16gJJ] 16bb
=17
[16cLL 16ee
16cJ_ 16bb
16cL_ 16aa
16cJJ] 16ccc
[16DLL
16DJ_ 16c
16DL_ 16f#
16DJJ] 16a
=18
[16GGLL 16B
16GGJ_ 16a
16GGL_ 16g
16GGJJ] 16b
[16DLL
16DJ_ 16d
16DL_ 16g 16b
16DJJ] 16f# 16a
=19
[16GLL
16GJ_ 16d
16GL_ 16a 16cc
16GJJ] 16g 16b
[16ELL
16EJ] 16g 16cc
[16C#XL
16C#JJ] 16g 16b
=20
[16DLL
16DJ_ 16f# 16a
16DL_ 16c#X
16DJJ] 16d
[16gLL
16gJ_ 16dd
16gL_ 16gg
16gJJ] 16bb
!!linebreak:original
=21
[16cLL 16ee
16cJ_ 16bb
16cL_ 16aa
16cJJ] 16ccc
[16DLL
16DJ_ 16c
16DL_ 16f#
16DJJ] 16a
=22
[16GGLL 16B
16GGJ_ 16a
16GGL_ 16g
16GGJJ] 16b
[16DLL
16DJ_ 16d
16DL_ 16g 16b
16DJJ] 16f# 16a
=23
[16GLL
16GJ_ 16d
16GL_ 16a 16cc
16GJJ] 16g 16b
[16ALL
16AJ] 16d 16f#
[16AAL [16G
16AAJJ] 16G] 16c 16e
=24
4D 4F# 4d
[16BLL [16d
16BJ_ 16d_ 16cc#X
16BL_ 16d_ 16ee
16BJJ] 16d] 16dd
=25
[16ALL [16d
16AJ_ 16d_ 16b
16AL_ 16d_ 16dd
16AJJ] 16d] 16cc
[16GLL [16d
16GJ] 16d] 16a#X
[16GL [16d 16cc
16GJJ] 16d] 16b
!!linebreak:original
=26
[16DLL [16d 16b
16DJ_ 16d_ 16a
16DL_ 16d_ 16g#X
16DJJ] 16d] 16a
[16cLL [16d
16cJ_ 16d_ 16dd#X
16cL_ 16d_ 16ff#
16cJJ] 16d] 16ee
=27
[16BLL [16d
16BJ_ 16d_ 16cc#X
16BL_ 16d_ 16ee
16BJJ] 16d] 16dd
[16F#LL [16d
16F#J] 16d] 16b
[16F#L [16d 16dd
16F#JJ] 16d] 16ccn
=28
[16GLL [16d 16cc
16GJ_ 16d_ 16a#X
16GL_ 16d_ 16b
16GJJ] 16d] 16gg
[16gLL
16gJ_ 16dd
16gL_ 16gg
16gJJ] 16bb
=29
[16cLL 16ee
16cJ_ 16bb
16cL_ 16aa
16cJJ] 16ccc
[16DLL
16DJ_ 16c
16DL_ 16f#
16DJJ] 16a
=30
[16GGLL 16B
16GGJ_ 16a
16GGL_ 16g
16GGJJ] 16b
[16DLL
16DJ_ 16d
16DL_ 16g 16b
16DJJ] 16f# 16a
!!pagebreak:original
=31
[16GLL
16GJ_ 16d
16GL_ 16a 16cc
16GJJ] 16g 16b
[16CLL
16CJ] 16e 16a 16cc
[16DL
16DJJ] 16c 16f# 16a
=
4GG 4B 4g
=32||
!LO:TX:a:B:t=VAR II
24GLL 24b
24B 24dd
24dJ 24gg
8g'J 8bb
=33
24cLL 24ee
24e 24aa
24aJ 24ccc
8cc'J 8eee
[24DLL 24A
24D_ 24c
24DJ_ 24e
24DL_ 24A
24D_ 24c
24DJJ] 24f#
=34
[24GGLL 24g
24GG_ 24d
24GGJ] 24B
24DL [24G
24BB 24G_
24GGJJ 24G]
24FF#LL
24AA
24DJ
[24DDL 24a
24DD_ 24f#
24DDJJ] 24d
!!linebreak:original
=35
24GGLL
24BB
24DJ
[24GL 24b
24G_ 24g
24GJJ] 24d
[24ELL
24E_ 24g
24EJ] 24cc
[24C#XL
24C#_ 24g
24C#JJ] 24b
=36
[24DLL 24f#
24D_ 24a
24DJ] 24g
24f#L
24e
24dJJ
24GLL 24b
24B 24dd
24dJ 24gg
8g'J 8bb
=37
24cLL 24ee
24e 24aa
24aJ 24ccc
8cc'J 8eee
[24DLL 24A
24D_ 24c
24DJ_ 24e
24DL_ 24A
24D_ 24c
24DJJ] 24f#
=38
[24GGLL 24g
24GG_ 24d
24GGJ] 24B
24DL [24G
24BB 24G_
24GGJJ 24G]
24FF#LL
24AA
24DJ
[24DDL 24a
24DD_ 24f#
24DDJJ] 24d
!!linebreak:original
=39
24GGLL
24BB
24DJ
[24GL 24b
24G_ 24g
24GJJ] 24d
24AALL 24a
24D 24f#
24F#J 24d
24AAL 24a
24E 24e
24GJJ 24c#X
=40
[24DLL [24F# 24d
24D_ 24F#_ 24f#
24DJ] 24F#] 24a
8ddJ
24BLL
24d
24gJ
[24bL 24dd
24b_ 24gg
24bJJ] 24ddd
=41
24ALL
24c
24f#J
[24aL 24cc
24a_ 24ff#
24aJJ] 24ccc
[24GLL 24d
24G_ 24g
24GJ] 24b
[24C#XL 24e
24C#_ 24g
24C#JJ] 24b
=42
[24DLL 24f#
24D_ 24a
24DJ_ 24g
24DL_ 24f#
24D_ 24e
24DJJ] 24d
24cLL
24f#
24aJ
[24ccL 24ff#
24cc_ 24aa
24ccJJ] 24eee
!!linebreak:original
=43
24BLL
24d
24gJ
[24bL 24dd
24b_ 24gg
24bJJ] 24ddd
[24ELL 24e
24E_ 24g
24EJ] 24cc
[24F#L 24e-X
24F#_ 24a
24F#JJ] 24cc
=44
[24GLL 24d
24G_ 24b
24GJ_ 24g
24GL] 24d
24D 24B
24BBJJ
24GGLL
24BB
24DJ
[24GL 24B
24G_ 24d
24GJJ] 24b
=45
24CLL
24E
24AJ
[24cL 24e
24c_ 24a
24cJJ] 24cc
24DLL
24F#
24AJ
[24cL 24f#
24c_ 24a
24cJJ] 24ff#
=46
24GLL
24B
24dJ
[24gL 24b
24g_ 24dd
24gJJ] 24bb
24DDLL 24dd
24FF# 24cc
24AAJ 24a
24DL 24dd
24E 24cc
24F#JJ 24a
!!linebreak:original
=47
24GLL 24dd
24A 24b
24BJ 24g
24BBL 24dd
24D 24b
24GJJ 24g
24CLL 24cc
24E 24a
24AJ 24e
24DL 24a
24E 24f#
24F#JJ 24c
=
[24GGLL 24g
24GG_ 24d
24GGJ] 24B
8GJ
=48||
!LO:TX:a:B:t=VAR III
16gLL [16b [16bb
16f#'J 16b] 16bb]
16eL [16b [16bb
16d'JJ 16b] 16bb]
=49
16cLL [16a [16aa
16BJ 16a_ 16aa_
16cL 16a_ 16aa_
16AJJ 16a] 16aa]
16dLL [16e [16ee
16c'J 16e] 16ee]
16BL [16f# [16ff#
16A'JJ 16f#] 16ff#]
=50
16BLL [16g [16gg
16A#XJ 16g_ 16gg_
16BL 16g_ 16gg_
16GJJ 16g] 16gg]
16F#LL [16an [16aan
16E#X'J 16a] 16aa]
16F#L [16a#X [16aa#X
16D'JJ 16a#] 16aa#]
!!linebreak:original
=51
16GLL [16b [16bb
16F#J 16b_ 16bb_
16GL 16b_ 16bb_
16FnJJ 16b] 16bb]
16ELL [16cc [16ccc
16G'J 16cc] 16ccc]
16E-XL [16cc#X [16ccc#X
16G'JJ 16cc#] 16ccc#]
=52
16DLL [16dd [16ddd
16AJ 16dd_ 16ddd_
16dL 16dd_ 16ddd_
16cJJ 16dd] 16ddd]
[16BBLL [16B 16gg
16BB'J] 16B] 16ff#
[16BBL [16B 16ee
16BB'JJ] 16B] 16dd
=53
[16AALL [16A 16cc 16dd
16AAJ_ 16A_ 16b
16AAL_ 16A_ 16cc
16AAJJ] 16A] 16ee
[16EELL [16E 16dd
16EE'J] 16E] 16cc
[16FF#L [16F# 16b
16FF#'JJ] 16F#] 16a
=54
[16GGLL [16G 16b 16cc
16GGJ_ 16G_ 16a#X
16GGL_ 16G_ 16b
16GGJJ] 16G] 16g
[16AAnLL [16An 16f#
16AA'J] 16A] 16dd
[16AA#XL [16A#X 16ff#
16AA#'JJ] 16A#] 16dd
=55
[16BBLL [16B [16gg
16BBJ_ 16B_ 16dd 16gg]
16BBL_ 16B_ 16ffn [16gg#X
16BBJJ] 16B] 16dd 16gg#]
[16AALL [16A 16ff#X [16aa
16AA'J] 16A] 16dd 16aa]
[16AAL [16Gn 16ee [16aa
16AA'JJ] 16G] 16cc#X 16aa]
!!pagebreak:original
=56
[16DLL [16F# [16dd
16DJ_ 16F#_ 16a 16dd_
16DL_ 16F#_ 16f# 16dd_
16DJJ] 16F#] 16d 16dd]
16BLL [16d [16dd
16A#X'J 16d] 16dd]
16BL [16d [16dd
16D'JJ 16d] 16dd]
=57
16ALL [16d [16dd
16G#XJ 16d] 16dd]
16AL 16c 16cc
16DJJ
16GnLL
16F#J
16GL [16B [16b
16D'JJ 16B] 16b]
=58
16F#LL [16B [16b
16E#XJ 16B] 16b]
16F#L 16A 16a
16DJJ
16cLL
16BJ
16cL [16en [16een
16D'JJ 16e] 16ee]
=59
16BLL [16e [16ee
16A#XJ 16e] 16ee]
16BL 16d 16dd
16DJJ
16AnLL
16DJ
16EL [16c [16cc
16F#'JJ 16c] 16cc]
=60
16GLL [16c [16cc
16GGJ 16c] 16cc]
16BBL [16B [16b
16DJJ 16B] 16b]
16GLL [16b [16bb
16F#'J 16b] 16bb]
16EL [16b [16bb
16D'JJ 16b] 16bb]
!!linebreak:original
=61
16CLL [16a [16aa
16BBJ 16a_ 16aa_
16CL 16a_ 16aa_
16AAJJ 16a] 16aa]
16DLL [16e [16ee
16C'J 16e] 16ee]
16BBL [16f# [16ff#
16AA'JJ 16f#] 16ff#]
=62
16BBLL [16g [16gg
16AA#XJ 16g_ 16gg_
16BBL 16g_ 16gg_
16GGJJ 16g] 16gg]
16FF#LL [16an [16aan
16EE#X'J 16a] 16aa]
16FF#L [16a#X [16aa#X
16DD'JJ 16a#] 16aa#]
=63
16GGLL [16b [16bb
16FF#J 16b_ 16bb_
16EEL 16b_ 16bb_
16DDJJ 16b] 16bb]
16CCLL [16cc [16aa [16ccc
16C'J 16cc] 16aa] 16ccc]
16DDL [16a [16ff# [16aa
16D'JJ 16a] 16ff#] 16aa]
=64
16GGLL [16g [16b [16gg
16BBJ 16g_ 16b_ 16gg_
16DL 16g_ 16b_ 16gg_
16GJJ 16g] 16b] 16gg]
[16BLL [16d 16ddd
16B'J] 16d] 16ccc#X
[16BL [16d 16ddd
16B'JJ] 16d] 16dd
=65
[16BLL [16d 16ddd
16BJ] 16d] 16ccc#X
16AL 16cn 16ddd
16ddJJ
16dddLL
16ccc#XJ
[16GL [16B 16ddd
16G'JJ] 16B] 16dd
!!linebreak:original
=66
[16GLL [16B 16ddd
16GJ] 16B] 16ccc#X
16F#L 16A 16ddd
16ddJJ
16dddLL
16ccc#XJ
[16cnL [16e 16ddd
16c'JJ] 16e] 16dd
=67
[16cLL [16e 16ddd
16cJ] 16e] 16ccc#X
16BL 16d 16ddd
16ddJJ
16dddLL
16ccc#XJ
[16AL [16cn 16ddd
16AJJ] 16c] 16dd
=68
[16ALL [16c 16ddd
16AJ] 16c] 16dd
16GL 16B 16ee
16ff#JJ
[16BBLL [16B 16gg
16BB'J] 16B] 16ff#
[16BBL [16B 16ee
16BB'JJ] 16B] 16dd
=69
[16AALL [16A 16cc 16dd
16AAJ_ 16A_ 16b
16AAL_ 16A_ 16cc
16AAJJ] 16A] 16ee
[16EELL [16E 16dd
16EE'J] 16E] 16cc
[16FF#L [16F# 16b
16FF#'JJ] 16F#] 16a
=70
[16GGLL [16G 16b 16cc
16GGJ_ 16G_ 16a#X
16GGL_ 16G_ 16b
16GGJJ] 16G] 16g
[16AAnLL [16An 16f#
16AA'J] 16A] 16dd
[16AA#XL [16A#X 16ff#
16AA#'JJ] 16A#] 16dd
!!linebreak:original
=71
[16BBLL [16B [16gg
16BBJ_ 16B_ 16dd 16gg]
16BBL_ 16B_ 16ffn [16gg#X
16BBJJ] 16B] 16dd 16gg#]
[16CLL [16c 16ee [16aa
16C'J] 16c] 16cc 16aa]
[16DL [16d 16cc [16ff#X
16D'JJ] 16d] 16a 16ff#]
=
[8GGL [8G 8b 8gg
8GGJ] 8G] 8g
*clefF4
=72||
*k[b-e-]
!LO:TX:a:B:t=VAR IV
8B-L
8B-J
=73
8.AAL 8.A
32BB-LL 32B-
32CJJJ 32c
8EEnL 8En
8FF#XJ 8F#X
=74
8..GGL 8..G
32DDJkk 32D
8..AAL 8..A
32DDJkk 32D
=75
8..BB-L 8..B-
32GGJkk 32G
8E-L 8e-
8C#XJ 8c#X
=76
4D 4d
8BB-L 8B-
8BB-J 8B-
!!linebreak:original
=77
8.AAL 8.A
32GGLL 32AA 32BB- 32G 32A 32B-
32CJJJ 32c
8EEnL 8En
8FF#XJ 8F#X
=78
8..GGL 8..G
32DDJkk 32D
8..AAL 8..A
32DDJkk 32D
=79
8..BB-L 8..B-
32GGJkk 32G
8AAL 8A
8AAAJ 8AA
=80
4DD 4D
[16BB-LL
16BB-J_ 16D
16BB-L] [16d
16DDJJ 16d]
=81
[16AALL 16d
16AAJ_ 16D
16AAL] [16c
16DDJJ 16c_
[16GGLL 16c]
16GGJ_ 16D
16GGL] [16B-
16DDJJ 16B-_
=82
[16FF#XLL 16B-]
16FF#J_ 16D
16FF#L] [16A
16DDJJ 16A_
[16CLL 16A]
16CJ_ 16D
16CL] [16e-
16DDJJ 16e-_
!!linebreak:original
=83
[16BB-LL 16e-]
16BB-J_ 16D
16BB-L] [16d
16DDJJ 16d_
16AALL 16d]
16DDJ 16D
16FF#XL [16c
16DDJJ 16c_
=84
[16GGLL 16c]
16GGJ_ 16B-
16GGL_ 16A
16GGJJ] 16G
8E-L 8e-
8E-J 8e-
=85
8.DL 8.d
32CLL 32D 32E- 32c 32d 32e-
32FJJJ 32f
8AAL 8A
8BBnJ 8Bn
=86
8..CL 8..c
32E-Jkk 32e-
8FF#XL 8F#X
8GGJ 8G
=87
8..BB-L 8..B-
32CC#XJkk 32C#X
8DDL 8D
8DDJ 8D
=
4GGG 4GG
*clefG2
=88||
*k[f#]
!LO:TX:a:B:t=VAR V
16GLL 16gg [16bb
16gJ 16ff# 16bb]
16GL 16ee [16bb
16gJJ 16dd 16bb]
!!pagebreak:original
=89
16GLL [16cc 16aa 16bb
16gJ 16cc_ 16gg#X
16GnL 16cc_ 16aa
16gJJ 16cc] 16ccc
16GLL 16cc [16ee
16gJ 16a 16ee]
16GL 16dd [16ff#
16gJJ 16cc 16ff#]
=90
16GLL [16b 16gg
16gJ 16b] 16ff#
16BL [16dd 16gg
16bJJ 16dd] 16gg#X
16F#LL [16dd 16aa
16f#J 16dd] 16gg#X
16DL [16ff# 16aa
16dJJ 16ff#] 16aa#X
=91
16GLL 16dd [16bb
16gJ 16ff# 16bb_
16GGL 16gg 16bb_
16GJJ 16ffn 16bb]
16CLL 16ee [16ccc
16cJ 16aa 16ccc]
16C#XL 16ee [16bb
16c#XJJ 16gg 16bb]
=92
[16DLL [16d 16ff# [16aa
16DJ_ 16d_ 16ee 16aa_
16DL_ 16d_ 16dd 16aa_
16DJJ] 16d] 16cc 16aa]
16GGLL 16g [16b
16GJ 16f# 16b]
16GGL 16e [16b
16GJJ 16d 16b]
!!linebreak:original
=93
16GGLL [16c 16a 16b
16GJ 16c_ 16g#X
16GGnL 16c_ 16a
16GJJ 16c] 16cc
16GGLL 16c [16e
16GJ 16A 16e]
16GGL 16d [16f#
16GJJ 16c 16f#]
=94
16GGLL [16B 16g
16GJ 16B] 16f#
16BBL [16d 16g
16BJJ 16d] 16g#X
16FF#LL [16d 16a
16F#J 16d] 16g#X
16DDL [16f# 16a
16DJJ 16f#] 16a#X
=95
16GGLL [16d 16b
16GJ 16d] 16a#X
16EEL [16d 16b
16EJJ 16d] 16g
16AAnLL [16d 16f#
16AJ 16d] 16an
16AAAL [16c#X 16e
16AAJJ 16c#] 16a
=96
[16DDLL [16D 16d
16DDJ_ 16D_ 16f#
16DDL_ 16D_ 16a
16DDJJ] 16D] 16cc#X
16DDLL 16b [16dd
16DJ 16a#X 16dd]
16DDL 16b [16dd
16DJJ 16g#X 16dd]
!!linebreak:original
=97
16DDLL 16a [16dd
16DJ 16g#X 16dd]
16DDL 16a 16cc
16DJJ 16f#
16DDLL 16gn
16DJ 16f#
16DDL 16g [16b
16DJJ 16c#X 16b]
=98
16DDLL 16d [16b
16DJ [16f# 16b]
16DDL 16f#] 16a
16DJJ 16b
16DDLL 16cc [16ee
16DJ 16b 16ee]
16DDL 16cc [16ee
16DJJ 16a#X 16ee]
=99
16DDLL 16b [16ee
16DJ 16a#X 16ee]
16DDL 16b 16dd
16DJJ 16g#X
16DDLL 16an
16DJ 16d
16DDL 16e [16cc
16DJJ 16f# 16cc]
=100
16GGLL 16g [16b
16GJ 16b_ 16dd
16GGL 16b_ 16ee
16GJJ 16b] 16ff#
16GGLL 16gg [16bb
16GJ 16ff# 16bb]
16GGL 16ee [16bb
16GJJ 16dd 16bb]
!!linebreak:original
=101
16GGLL [16cc 16aa 16bb
16GJ 16cc_ 16gg#X
16GGnL 16cc_ 16aa
16GJJ 16cc] 16ccc
16GGLL 16cc [16ee
16GJ 16a 16ee]
16GGL 16dd [16ff#
16GJJ 16cc 16ff#]
=102
16GGLL [16b 16gg
16GJ 16b] 16ff#
16DL [16dd 16gg
16BJJ 16dd] 16gg#X
16FF#LL [16dd 16aa
16F#J 16dd] 16gg#X
16DDL [16ff# 16aa
16DJJ 16ff#] 16aa#X
=103
16GGLL 16dd [16bb
16GJ 16ff# 16bb_
16GGGL 16gg 16bb_
16GGJJ 16ffn 16bb]
16CCLL 16ee [16ccc
16CJ 16aa 16ccc]
16DDL 16ff#X [16aa
16DJJ 16cc 16aa]
=
16GGGLL [16b [16gg
16GGJ 16b_ 16gg_
8GGGJ 8b] 8gg]
=104||
!LO:TX:a:B:t=VAR VI
[32GLLL [32B [32d [32g 32bb
32G_ 32B_ 32d_ 32g_ 32aa
32G_ 32B_ 32d_ 32g_ 32gg
32G'JJ] 32B] 32d] 32g] 32ff#
32eeLL
32dd
32cc
32bJJJ
!!linebreak:original
=105
[32CLLL [32E [32A [32c 32a
32C_ 32E_ 32A_ 32c_ 32cc
32C_ 32E_ 32A_ 32c_ 32ee
32C'JJ] 32E] 32A] 32c] 32dd
32ccLL
32b
32a
32gJJJ
[32DLLL [32A [32c 32f#
32D_ 32A_ 32c_ 32e
32D_ 32A_ 32c_ 32d
32D'JJ] 32A] 32c] 32c#X
32dLL
32e
32fn
32f#XJJJ
=106
[32GGLLL [32BB [32D [32G 32g
32GG_ 32BB_ 32D_ 32G_ 32a
32GG_ 32BB_ 32D_ 32G_ 32b
32GG'JJ] 32BB] 32D] 32G] 32cc
32ddLL
32ee
32ff#
32ggJJJ
[32DDLLL [32D 32f#
32DD_ 32D_ 32a
32DD_ 32D_ 32dd
32DD'JJ] 32D] 32ff#
32aaLL
32ff#
32dd
32aJJJ
=107
[32GGGLLL [32GG 32g
32GGG_ 32GG_ 32b
32GGG_ 32GG_ 32dd
32GGG'JJ] 32GG] 32gg
32bbLL
32gg
32dd
32bJJJ
[32CCLLL [32C
32CC_ 32C_ 32ee
32CC_ 32C_ 32aa
32CCJJ] 32C] 32ccc
[32CC#XLL [32C#X
32CC#_ 32C#_ 32ee
32CC#_ 32C#_ 32gg
32CC#JJJ] 32C#] 32bb
!!linebreak:original
=108
[32DDLLL [32D 32ff# 32aa
32DD_ 32D_ 32dd
32DD_ 32D_ 32cc#X
32DDJJ] 32D] 32dd
32eeLL
32ff#
32gg
32aaJJJ
[32GLLL [32B [32d [32g 32bb
32G_ 32B_ 32d_ 32g_ 32aa
32G_ 32B_ 32d_ 32g_ 32gg
32G'JJ] 32B] 32d] 32g] 32ff#
32eeLL
32dd
32ccn
32bJJJ
=109
[32CLLL [32E [32A [32c 32a
32C_ 32E_ 32A_ 32c_ 32cc
32C_ 32E_ 32A_ 32c_ 32ee
32C'JJ] 32E] 32A] 32c] 32dd
32ccLL
32b
32a
32gJJJ
[32DLLL [32A [32c 32f#
32D_ 32A_ 32c_ 32e
32D_ 32A_ 32c_ 32d
32D'JJ] 32A] 32c] 32c#X
32dLL
32e
32fn
32f#XJJJ
!!pagebreak:original
=110
[32GGLLL [32BB [32D [32G 32g
32GG_ 32BB_ 32D_ 32G_ 32a
32GG_ 32BB_ 32D_ 32G_ 32b
32GG'JJ] 32BB] 32D] 32G] 32cc
32ddLL
32ee
32ff#
32ggJJJ
[32DDLLL [32D 32f#
32DD_ 32D_ 32a
32DD_ 32D_ 32dd
32DD'JJ] 32D] 32ff#
32aaLL
32ff#
32dd
32aJJJ
=111
[32GGGLLL [32GG 32g
32GGG_ 32GG_ 32b
32GGG_ 32GG_ 32dd
32GGG'JJ] 32GG] 32gg
32bbLL
32gg
32dd
32bJJJ
[32AAALLL [32AA
32AAA_ 32AA_ 32a
32AAA_ 32AA_ 32dd
32AAAJJ] 32AA] 32ff#
[32AAALL [32AA
32AAA_ 32AA_ 32g
32AAA_ 32AA_ 32cc#X
32AAAJJJ] 32AA] 32ee
=112
[32DDLLL [32D
32DD_ 32D_ 32dd
32DD_ 32D_ 32a
32DDJJ] 32D] 32f#
[32dLL
32D 32d_
32A 32d_
32cJJJ 32d]
[32BLLL
32B_ 32dd
32B_ 32cc#X
32BJJ_ 32dd
16BL] 16ddd
16DJJ 16dd
!!linebreak:original
=113
[32ALLL
32A_ 32cc
32A_ 32b
32AJJ_ 32cc
16AL] 16ccc
16DJJ 16cc
[32GLLL
32G] 32b
[32D 32a#X
32DJJ] 32b
16FnL 16G#X 16bb
[16DJJ 16b
=114
32DLLL_ [32F# [32A 32g#X
32D_ 32F#_ 32A_ 32a
32D_ 32F#_ 32A_ 32b-X
32DJJ] 32F#] 32A] 32bn
32ccLL
32cc#X
32dd
32dd#XJJJ
[32cnLLL
32c_ 32ee
32c_ 32dd#X
32cJJ_ 32ee
16cL] 16eee
16DnJJ 16ee
=115
[32BLLL
32B_ 32dd
32B_ 32cc#X
32BJJ_ 32dd
16BL] 16ddd
16DJJ 16dd
[32ALLL
32A] 32ccn
[32D 32b
32DJJ] 32cc
16F#L 16A 16ccc
16DJJ 16cc
!!linebreak:original
=116
[32GLLL [32B
32G_ 32B_ 32b
32G_ 32B_ 32cc
32GJJ] 32B] 32dd
32eeLL
32ff#
32gg
32aaJJJ
[32GLLL [32B [32d [32g 32bb
32G_ 32B_ 32d_ 32g_ 32aa
32G_ 32B_ 32d_ 32g_ 32gg
32GJJ] 32B] 32d] 32g] 32ff#
32eeLL
32dd
32cc
32bJJJ
=117
[32CLLL [32E [32A [32c 32a
32C_ 32E_ 32A_ 32c_ 32cc
32C_ 32E_ 32A_ 32c_ 32ee
32CJJ] 32E] 32A] 32c] 32dd
32ccLL
32b
32a
32gJJJ
[32DLLL [32A [32c 32f#
32D_ 32A_ 32c_ 32e
32D_ 32A_ 32c_ 32d
32DJJ] 32A] 32c] 32c#X
32dLL
32e
32fn
32f#XJJJ
=118
[32GGLLL [32BB [32D [32G 32g
32GG_ 32BB_ 32D_ 32G_ 32a
32GG_ 32BB_ 32D_ 32G_ 32b
32GGJJ] 32BB] 32D] 32G] 32cc
32ddLL
32ee
32ff#
32ggJJJ
[32DDLLL [32D 32f#
32DD_ 32D_ 32a
32DD_ 32D_ 32dd
32DDJJ] 32D] 32ff#
32aaLL
32ff#
32dd
32aJJJ
!!linebreak:original
=119
[32GGGLLL [32GG 32g
32GGG_ 32GG_ 32b
32GGG_ 32GG_ 32dd
32GGGJJ] 32GG] 32gg
32bbLL
32gg
32dd
32bJJJ
[32CCLLL [32C
32CC_ 32C_ 32ee
32CC_ 32C_ 32aa
32CCJJ] 32C] 32ccc
[32DDLL [32D
32DD_ 32D_ 32cc
32DD_ 32D_ 32ff#
32DDJJJ] 32D] 32aa
=120
[16GGGLL [16GG 16b 16gg
32GGGL_ 32GG_ 32g
32GGGJJ] 32GG] 32f#
32gLL
32a
32b
32ccJJJ
[32BLLL
32B_ 32dd
32B_ 32cc#X
32BJJ_ 32dd
16BL] 16ddd
16DJJ 16dd
=121
[32ALLL
32A_ 32cc
32A_ 32b
32AJJ_ 32cc
16AL] 16ccc
16DJJ 16cc
[32GLLL
32G] 32b
[32D 32a#X
32DJJ] 32b
16FnL 16G#X 16bb
[16DJJ 16b
!!linebreak:original
=122
32DLLL_ [32F# [32A 32g#X
32D_ 32F#_ 32A_ 32a
32D_ 32F#_ 32A_ 32b-X
32DJJ] 32F#] 32A] 32bn
32ccLL
32cc#X
32dd
32dd#XJJJ
[32cnLLL
32c_ 32ee
32c_ 32dd#X
32cJJ_ 32ee
16cL] 16eee
16DnJJ 16ee
=123
[32BLLL
32B_ 32dd
32B_ 32cc#X
32BJJ_ 32dd
16BL] 16ddd
16DJJ 16dd
[32ALLL
32A] 32ccn
[32D 32b
32DJJ] 32cc
16F#L 16A 16ccc
16DJJ 16cc
=124
[32GLLL [32B
32G_ 32B_ 32b
32G_ 32B_ 32cc
32GJJ] 32B] 32dd
32eeLL
32ff#
32gg
32aaJJJ
[32GLLL [32B [32d [32g 32bb
32G_ 32B_ 32d_ 32g_ 32aa
32G_ 32B_ 32d_ 32g_ 32gg
32GJJ] 32B] 32d] 32g] 32ff#
32eeLL
32dd
32cc
32bJJJ
!!linebreak:original
=125
[32CLLL [32E [32A [32c 32a
32C_ 32E_ 32A_ 32c_ 32cc
32C_ 32E_ 32A_ 32c_ 32ee
32CJJ] 32E] 32A] 32c] 32dd
32ccLL
32b
32a
32gJJJ
[32DLLL [32A [32c 32f#
32D_ 32A_ 32c_ 32e
32D_ 32A_ 32c_ 32d
32DJJ] 32A] 32c] 32c#X
32dLL
32e
32fn
32f#XJJJ
=126
[32GGLLL [32BB [32D [32G 32g
32GG_ 32BB_ 32D_ 32G_ 32a
32GG_ 32BB_ 32D_ 32G_ 32b
32GGJJ] 32BB] 32D] 32G] 32cc
32ddLL
32ee
32ff#
32ggJJJ
[32DDLLL [32D 32f#
32DD_ 32D_ 32a
32DD_ 32D_ 32dd
32DDJJ] 32D] 32ff#
32aaLL
32ff#
32dd
32aJJJ
=127
[32GGGLLL [32GG 32g
32GGG_ 32GG_ 32b
32GGG_ 32GG_ 32dd
32GGGJJ] 32GG] 32gg
32bbLL
32gg
32dd
32bJJJ
[32CCLLL [32C
32CC_ 32C_ 32ee
32CC_ 32C_ 32aa
32CCJJ] 32C] 32ccc
[32DDLL [32D
32DD_ 32D_ 32cc
32DD_ 32D_ 32ff#
32DDJJJ_ 32D_ [32aa
!!pagebreak:original
=128
4DD;] 4D] 4aa]
[8g'L 8dd 8bb
8g'J] 8dd#X 8bb
=129
[8cL 8ee 8aa
16cL_ 16ccc
16cJJ]
[8DL 8c 8f#
8DJ] 8c 8d
=130
[8GGL 8B [8g
16GGL_ 16G 16g_
16GGJJ] 16g]
[16gLL 16dd
16gJ_ 16bb
16gL_ 16dd#X
16gJJ] 16bb
=131
[16cLL 16ee
16cJ_ 16aa
16cL_ 16ccc
16cJJ]
[16DLL 16c
16DJ_ 16f#
16DL_ 16c
16DJJ] 16d
=132
4GG 4B 4g
[24gLL
24g_ 24dd
24gJ] 24bb
[24gL
24g_ 24dd#X
24gJJ] 24bb
=133
[24cLL
24c_ 24ee
24cJ_ 24aa
8c'J] 8ccc
[24DLL
24D_ 24c
24DJ] 24f#
[24DL
24D_ 24c
24DJJ] 24d
!!linebreak:original
=134
[24GGLL
24GG_ 24B
24GGJ_ 24g
8GGJ] 8G
[32gLLL 32dd
32g_ 32bb
32g_ 32dd
32gJJ] 32bb
[32gLL 32dd#X
32g_ 32bb
32g_ 32dd#X
32gJJJ] 32bb
=135
[32cLLL 32ee
32c_ 32aa
32c_ 32ee
32cJJ_ 32aa
8cJ] 8ccc
[32DLLL 32c
32D_ 32f#
32D_ 32c
32DJJ] 32f#
[32DLL 32c
32D_ 32d
32D_ 32c
32DJJJ] 32d
=136
4GG 4B 4g
[24DLL [24A
24D_ 24A_ 24c
24DJ_ 24A] 24f#
24DL_ [24F#
24D_ 24F#_ 24c
24DJJ] 24F#] 24d
=137
[24GGLL [24G
24GG_ 24G_ 24B
24GGJ_ 24G_ 24g
8GGJ] 8G] 8b
[24DLL [24A
24D_ 24A_ 24c
24DJ_ 24A] 24f#
24DL_ [24F#
24D_ 24F#_ 24c
24DJJ] 24F#] 24d
!!linebreak:original
=138
[24GGLL [24G
24GG_ 24G_ 24B
24GGJ_ 24G_ 24g
8GGJ] 8G] 8dd
[24DLL [24A
24D_ 24A_ 24c
24DJ_ 24A] 24f#
24DL_ [24F#
24D_ 24F#_ 24c
24DJJ] 24F#] 24d
=139
[24GGLL [24G
24GG_ 24G_ 24B
24GGJ_ 24G_ 24g
8GGJ] 8G] 8b
[24DLL [24A
24D_ 24A_ 24c
24DJ_ 24A] 24f#
24DL_ [24F#
24D_ 24F#_ 24c
24DJJ] 24F#] 24d
=140
[32GGLLL [32G
32GG_ 32G_ 32B
32GG_ 32G_ 32d
32GGJJ] 32G] 32g
[32DLL
32D_ 32c
32D_ 32d
32DJJJ] 32f#
[32GGLLL
32GG_ 32B
32GG_ 32d
32GGJJ] 32g
[32DDLL
32DD_ 32c
32DD_ 32d
32DDJJJ] 32f#
=141
8GGG 8B 8d 8g
8r
8GG 8G 8b 8dd 8gg 8bb
8r
=142
8GGG 8GG 8g 8b 8dd 8gg
4.r
==
*-
